X:96
T:The King's Reel
A:Cape Breton
S:Sandy MacIntyre
R:Reel
L:1/8
M:C|
K:AMix
B,| (G,A,)EA, FA,EA,| (G,A,)ED CA,A,B, | (G,A,)EA, FA,EF | G2 D=C B,G, G, :|
d | ((3cBA) eA aeed| ((3cBA) eA cAAd | ((3cBA) eA agef | gdd=c BGGB|
 ((3cBA) eA aeed| ((3cBA) eA cAAB | =c2 dc B2 Gc | Bgdg BG G ||
B,| (G,A,)EA, FA,EA,| (G,A,)ED CA,A,B, | (G,A,)EA, FA,EF | G2 D=C B,G, G, :|
d | cA A/A/A eaed | cAeA cAAd | cA A/A/A agef | gedg BGGB |
cA A/A/A eaed | cAeA cAAc | dfed {c/d/}c2 Ac | Bgdg BG G ||
